icons/communication/message-attach-alt-24.svg

<svg width="24" height="24" viewBox="0 0 24 24" fill="none" xmlns="http://www.w3.org/2000/svg">
<path fill-rule="evenodd" clip-rule="evenodd" d="M18.75 13.5C18.3358 13.5 18 13.8358 18 14.25V19.25C18 19.6642 17.6642 20 17.25 20C16.8358 20 16.5 19.6642 16.5 19.25V14.25C16.5 13.0074 17.5074 12 18.75 12C19.9926 12 21 13.0074 21 14.25V19.375C21 21.377 19.377 23 17.375 23C15.373 23 13.75 21.377 13.75 19.375V16.75C13.75 16.3358 14.0858 16 14.5 16C14.9142 16 15.25 16.3358 15.25 16.75V19.375C15.25 20.5486 16.2014 21.5 17.375 21.5C18.5486 21.5 19.5 20.5486 19.5 19.375V14.25C19.5 13.8358 19.1642 13.5 18.75 13.5Z" fill="black"/>
<path d="M12.5 3.5C8.08173 3.5 4.50001 7.08172 4.50001 11.5C4.50001 12.7385 4.78091 13.9092 5.28177 14.9539C5.39825 15.1969 5.37227 15.4713 5.23708 15.6828L3.80161 19.0948L8.34898 18.5132C8.48487 18.4958 8.61691 18.516 8.73469 18.5656C8.75906 18.5752 8.78317 18.5862 8.80691 18.5986C9.1186 18.7611 9.44235 18.9037 9.77652 19.0247C10.1745 19.1687 10.4178 19.5893 10.2991 19.9955C10.1855 20.3839 9.78254 20.6145 9.40009 20.4825C9.02686 20.3537 8.6641 20.2023 8.3135 20.03L3.13105 20.6928C2.36666 20.7906 1.7836 20.0234 2.08244 19.3131L3.78057 15.2767C3.27821 14.1184 3.00001 12.8408 3.00001 11.5C3.00001 6.25329 7.2533 2 12.5 2C17.4943 2 21.5885 5.85392 21.9708 10.7501C22.0031 11.163 21.6642 11.5 21.25 11.5C20.8358 11.5 20.5037 11.1631 20.4654 10.7507C20.0876 6.68377 16.6656 3.5 12.5 3.5Z" fill="black"/>
</svg>

<svg xmlns="http://www.w3.org/2000/svg" width="24" height="24"><path fill-rule="evenodd" d="M18.75 13.5a.75.75 0 00-.75.75v5a.75.75 0 01-1.5 0v-5a2.25 2.25 0 014.5 0v5.125a3.625 3.625 0 01-7.25 0V16.75a.75.75 0 011.5 0v2.625a2.125 2.125 0 004.25 0V14.25a.75.75 0 00-.75-.75z"/><path d="M12.5 3.5a8 8 0 00-7.218 11.454.75.75 0 01-.045.729l-1.435 3.412 4.547-.582a.746.746 0 01.458.086c.312.162.635.305.97.426.398.144.64.564.522.97-.114.389-.516.62-.899.488a9.461 9.461 0 01-1.087-.453l-5.182.663a1 1 0 01-1.049-1.38l1.699-4.036A9.5 9.5 0 0112.5 2c4.993 0 9.087 3.854 9.47 8.75.032.413-.307.75-.721.75s-.746-.337-.785-.75A8 8 0 0012.5 3.5z"/></svg>
